jsapp/svg-icons/report.svg

<svg height="40" viewBox="0 0 40 40" width="40" xmlns="http://www.w3.org/2000/svg"><path d="m26.9839015 26h-13.9867424v-10h13.9867424zm-14.9857954-13h15.9848484v1h-15.9848484zm17.9829545 2v-3c0-.552-.4465767-1-.999053-1h-17.9829546c-.5514772 0-.999053.448-.999053 1v3c0 .552.4475758 1 .999053 1v10h-.999053v2h8.9914773v2h1.998106v-2h8.9914773v-2h-.999053v-10c.5524763 0 .999053-.448.999053-1zm-8.0935369 2.5534983c-.1758334-.352-.5424858-.574-.9351137-.552-.3936269.017-.7402983.262-.88616.628l-1.4356392 3.592-.9261222-.928c-.3366808-.337-.8651799-.389-1.2608049-.125l-2.4436837 1.63v2.404l2.8702794-1.915 1.4186553 1.42c.2387736.238.5794507.343.9081392.273.3286884-.068.6014299-.296.7263115-.608l1.1718892-2.933 1.0030493 2.009c.1278788.256.3606581.445.6373958.519.2787358.074.5714583.024.810232-.135l2.4426847-1.63v-2.404l-2.6095266 1.742z" fill-rule="evenodd"/></svg>

<?xml version="1.0" encoding="UTF-8"?>
<svg width="40px" height="40px" viewBox="0 0 40 40" version="1.1" xmlns="http://www.w3.org/2000/svg" xmlns:xlink="http://www.w3.org/1999/xlink">
    <!-- Generator: Sketch 50.2 (55047) - http://www.bohemiancoding.com/sketch -->
    <title>Icons/report</title>
    <desc>Created with Sketch.</desc>
    <defs>
        <path d="M26.9839015,26 L12.9971591,26 L12.9971591,16 L26.9839015,16 L26.9839015,26 Z M11.9981061,13 L27.9829545,13 L27.9829545,14 L11.9981061,14 L11.9981061,13 Z M29.9810606,15 L29.9810606,12 C29.9810606,11.448 29.5344839,11 28.9820076,11 L10.999053,11 C10.4475758,11 10,11.448 10,12 L10,15 C10,15.552 10.4475758,16 10.999053,16 L10.999053,26 L10,26 L10,28 L18.9914773,28 L18.9914773,30 L20.9895833,30 L20.9895833,28 L29.9810606,28 L29.9810606,26 L28.9820076,26 L28.9820076,16 C29.5344839,16 29.9810606,15.552 29.9810606,15 L29.9810606,15 Z M21.8875237,17.5534983 C21.7116903,17.2014983 21.3450379,16.9794983 20.95241,17.0014983 C20.5587831,17.0184983 20.2121117,17.2634983 20.06625,17.6294983 L18.6306108,21.2214983 L17.7044886,20.2934983 C17.3678078,19.9564983 16.8393087,19.9044983 16.4436837,20.1684983 L14,21.7984983 L14,24.2024983 L16.8702794,22.2874983 L18.2889347,23.7074983 C18.5277083,23.9454983 18.8683854,24.0504983 19.1970739,23.9804983 C19.5257623,23.9124983 19.7985038,23.6844983 19.9233854,23.3724983 L21.0952746,20.4394983 L22.0983239,22.4484983 C22.2262027,22.7044983 22.458982,22.8934983 22.7357197,22.9674983 C23.0144555,23.0414983 23.307178,22.9914983 23.5459517,22.8324983 L25.9886364,21.2024983 L25.9886364,18.7984983 L23.3791098,20.5404983 L21.8875237,17.5534983 Z" id="path-1"></path>
    </defs>
    <g id="Icons/report" stroke="none" stroke-width="1" fill="none" fill-rule="evenodd">
        <mask id="mask-2" fill="white">
            <use xlink:href="#path-1"></use>
        </mask>
        <use id="Mask" fill="#000000" xlink:href="#path-1"></use>
    </g>
</svg>
